svg/audio_input_stereo_minijack.svg

<svg xmlns="http://www.w3.org/2000/svg" viewBox="0 0 24 24"><path d="M11 4V3c0-.55.45-1 1-1s1 .45 1 1v1zm2 5V5h-2v4H9v6c0 1.3.84 2.4 2 2.82V22h2v-4.18c1.16-.42 2-1.52 2-2.82V9z"/></svg>

<svg xmlns="http://www.w3.org/2000/svg" id="mdi-audio-input-stereo-minijack" viewBox="0 0 24 24"><path d="M11 4V3C11 2.45 11.45 2 12 2S13 2.45 13 3V4H11M13 9V5H11V9H9V15C9 16.3 9.84 17.4 11 17.82V22H13V17.82C14.16 17.4 15 16.3 15 15V9H13Z" /></svg>
